assets/azurecontainerappsenvironments/original.svg

<svg height="18" viewBox="0 0 18 18" width="18" xmlns="http://www.w3.org/2000/svg" xmlns:xlink="http://www.w3.org/1999/xlink"><linearGradient id="a" gradientUnits="userSpaceOnUse" x1="11.729" x2="11.729" y1="4.88" y2="13.099"><stop offset=".001" stop-color="#773adc"/><stop offset=".528" stop-color="#6635bb"/><stop offset="1" stop-color="#552f99"/></linearGradient><linearGradient id="b" gradientUnits="userSpaceOnUse" x1="6.35" x2="6.35" y1="13.914" y2="4.198"><stop offset=".001" stop-color="#773adc"/><stop offset=".307" stop-color="#793ddd"/><stop offset=".532" stop-color="#8046e1"/><stop offset=".731" stop-color="#8c56e7"/><stop offset=".915" stop-color="#9c6def"/><stop offset="1" stop-color="#a67af4"/></linearGradient><path d="m8.617 8.644h-7.978v-6.86a1.16 1.16 0 0 1 1.149-1.16h6.829zm-6.987-.991h6v-6.059h-5.842a.16.16 0 0 0 -.158.158zm15.87.991h-7.977v-8.02h6.828a1.16 1.16 0 0 1 1.149 1.16zm-6.987-.991h6v-5.869a.157.157 0 0 0 -.123-.187h-5.877zm-1.896 9.832h-6.829a1.15 1.15 0 0 1 -1.149-1.138v-6.871h7.978zm-6.987-7.018v5.88a.16.16 0 0 0 .158.158h5.838v-6.038zm14.721 7.018h-6.828v-8.009h7.977v6.871a1.15 1.15 0 0 1 -1.149 1.138m-5.838-.991h5.838a.157.157 0 0 0 .158-.158v-5.869h-6z" fill="#949494"/><path d="m14.6 6.294a.29.29 0 0 0 -.2-.278l-5.356-1.811a.1.1 0 0 0 -.044-.005.13.13 0 0 0 -.133.133v9.445a.133.133 0 0 0 .133.133.1.1 0 0 0 .049-.01l5.365-2.145a.29.29 0 0 0 .184-.272z" fill="url(#a)"/><path d="m8.966 4.2-5.293.966a.16.16 0 0 0 -.13.158v7.306a.16.16 0 0 0 .126.157l5.293 1.123a.16.16 0 0 0 .191-.121v-9.431a.16.16 0 0 0 -.153-.158z" fill="url(#b)"/><path d="m6.52 5.656v6.8l1.842.3v-7.421zm-2.262.367v5.955l1.6.326v-6.55z" fill="#b796f9" opacity=".5"/></svg>

<svg xmlns="http://www.w3.org/2000/svg" width="18" height="18" viewBox="0 0 18 18"><linearGradient id="a" x1="11.729" x2="11.729" y1="4.88" y2="13.099" gradientUnits="userSpaceOnUse"><stop offset=".001" stop-color="#773adc"/><stop offset=".528" stop-color="#6635bb"/><stop offset="1" stop-color="#552f99"/></linearGradient><linearGradient id="b" x1="6.35" x2="6.35" y1="13.914" y2="4.198" gradientUnits="userSpaceOnUse"><stop offset=".001" stop-color="#773adc"/><stop offset=".307" stop-color="#793ddd"/><stop offset=".532" stop-color="#8046e1"/><stop offset=".731" stop-color="#8c56e7"/><stop offset=".915" stop-color="#9c6def"/><stop offset="1" stop-color="#a67af4"/></linearGradient><path fill="#949494" d="M8.617 8.644H.639v-6.86A1.16 1.16 0 0 1 1.788.624h6.829zM1.63 7.653h6V1.594H1.788a.16.16 0 0 0-.158.158zm15.87.991H9.523V.624h6.828a1.16 1.16 0 0 1 1.149 1.16zm-6.987-.991h6V1.784a.157.157 0 0 0-.123-.187h-5.877zm-1.896 9.832H1.788a1.15 1.15 0 0 1-1.149-1.138V9.476h7.978zM1.63 10.467v5.88a.16.16 0 0 0 .158.158h5.838v-6.038zm14.721 7.018H9.523V9.476H17.5v6.871a1.15 1.15 0 0 1-1.149 1.138m-5.838-.991h5.838a.157.157 0 0 0 .158-.158v-5.869h-6z"/><path fill="url(#a)" d="M14.6 6.294a.29.29 0 0 0-.2-.278L9.044 4.205A.1.1 0 0 0 9 4.2a.13.13 0 0 0-.133.133v9.445a.133.133 0 0 0 .133.133.1.1 0 0 0 .049-.01l5.365-2.145a.29.29 0 0 0 .184-.272z"/><path fill="url(#b)" d="m8.966 4.2-5.293.966a.16.16 0 0 0-.13.158v7.306a.16.16 0 0 0 .126.157l5.293 1.123a.16.16 0 0 0 .191-.121V4.358A.16.16 0 0 0 9 4.2z"/><path fill="#b796f9" d="M6.52 5.656v6.8l1.842.3V5.335zm-2.262.367v5.955l1.6.326v-6.55z" opacity=".5"/></svg>
